X:2984
T:Jenny Lind Polka. GHW.007
O:england
M:2/4
L:1/8
Q:220
S:George H.Watson,MS,Swanton Abbott,Norfolk,1850-1880
R:Polka
A:Norfolk
N:DC marked at end of each part.TT Meaning play ABAC? CGP.
K:D
FA GB|Af f/g/f|Ge e/f/e|Fd d/e/d|FA GB|Af f/g/f|Ge e/f/e|ddd:|
:z|dB B/c/B|AF F/G/F|GE E/F/E|FD D/E/D|dB B/c/B|AF F/G/F|GE E/
F/E|DDD:|
:z|e/f/e bc|ed d/c/d|e/f/e d^g|ba a/^g/a|e/f/e ac|ed d/c/d|e/f
/e dB|AAA:|


